site/static/docs/images/icons/alerting.svg

<svg fill="none" height="26" viewBox="0 0 26 26" width="26" xmlns="http://www.w3.org/2000/svg"><g fill="#0075ff"><circle cx="13" cy="13" opacity=".15" r="13"/><path clip-rule="evenodd" d="m13 5c-2.7614 0-5 2.23858-5 5v2.9472c0 .0494-.01461.0976-.04199.1387l-1.70313 2.5547c-.1662.2493-.25488.5422-.25488.8418 0 .8382.67945 1.5176 1.51759 1.5176h10.96481c.8382 0 1.5176-.6794 1.5176-1.5176 0-.2996-.0887-.5925-.2549-.8418l-1.7031-2.5547c-.0274-.0411-.042-.0893-.042-.1387v-2.9472c0-2.76142-2.2386-5-5-5zm-3.5 5c0-1.933 1.567-3.5 3.5-3.5s3.5 1.567 3.5 3.5v2.9472c0 .3455.1023.6833.2939.9707l1.7031 2.5547c.002.0029.003.0063.003.0098 0 .0023-.0005.0049-.0005.0049l-.0006.0017s-.0019.0037-.0041.0058c-.0021.0022-.0058.0041-.0058.0041s-.0028.0011-.0066.0011h-10.96481c-.00381 0-.00662-.0011-.00662-.0011s-.00368-.0019-.00582-.0041c-.00213-.0021-.00408-.0058-.00408-.0058s-.00107-.0028-.00107-.0066c0-.0035.00103-.0069.00295-.0098l1.70314-2.5547c.19164-.2874.29391-.6252.29391-.9707z" fill-rule="evenodd"/><path d="m14.9846 19.2495c-.1228.9868-.9645 1.7505-1.9846 1.7505s-1.8618-.7637-1.9846-1.7505c-.017-.137.0965-.2495.2346-.2495h3.5c.1381 0 .2516.1125.2346.2495z"/></g></svg>

<svg width="26" height="26" viewBox="0 0 26 26" fill="none" xmlns="http://www.w3.org/2000/svg">
<circle opacity="0.15" cx="13" cy="13" r="13" fill="#0075ff"/>
<path fill-rule="evenodd" clip-rule="evenodd" d="M13 5C10.2386 5 8 7.23858 8 10V12.9472C8 12.9966 7.98539 13.0448 7.95801 13.0859L6.25488 15.6406C6.08868 15.8899 6 16.1828 6 16.4824C6 17.3206 6.67945 18 7.51759 18H18.4824C19.3206 18 20 17.3206 20 16.4824C20 16.1828 19.9113 15.8899 19.7451 15.6406L18.042 13.0859C18.0146 13.0448 18 12.9966 18 12.9472V10C18 7.23858 15.7614 5 13 5ZM9.5 10C9.5 8.067 11.067 6.5 13 6.5C14.933 6.5 16.5 8.067 16.5 10V12.9472C16.5 13.2927 16.6023 13.6305 16.7939 13.9179L18.497 16.4726C18.499 16.4755 18.5 16.4789 18.5 16.4824C18.5 16.4847 18.4995 16.4873 18.4995 16.4873L18.4989 16.489C18.4989 16.489 18.497 16.4927 18.4948 16.4948C18.4927 16.497 18.489 16.4989 18.489 16.4989C18.489 16.4989 18.4862 16.5 18.4824 16.5H7.51759C7.51378 16.5 7.51097 16.4989 7.51097 16.4989C7.51097 16.4989 7.50729 16.497 7.50515 16.4948C7.50302 16.4927 7.50107 16.489 7.50107 16.489C7.50107 16.489 7.5 16.4862 7.5 16.4824C7.5 16.4789 7.50103 16.4755 7.50295 16.4726L9.20609 13.9179C9.39773 13.6305 9.5 13.2927 9.5 12.9472V10Z" fill="#0075ff"/>
<path d="M14.9846 19.2495C14.8618 20.2363 14.0201 21 13 21C11.9799 21 11.1382 20.2363 11.0154 19.2495C10.9984 19.1125 11.1119 19 11.25 19H14.75C14.8881 19 15.0016 19.1125 14.9846 19.2495Z" fill="#0075ff"/>
</svg>
